src/assets/icons/edit.svg

<?xml version="1.0" encoding="UTF-8" standalone="no"?>
<svg width="72px" height="72px" viewBox="0 0 72 72" version="1.1" xmlns="http://www.w3.org/2000/svg" xmlns:xlink="http://www.w3.org/1999/xlink">
    <!-- Generator: Sketch 42 (36781) - http://www.bohemiancoding.com/sketch -->
    <title>edit</title>
    <desc>Created with Sketch.</desc>
    <defs></defs>
    <g id="Page-1" stroke="none" stroke-width="1" fill="none" fill-rule="evenodd">
        <g id="edit">
            <path d="M41.3965404,12.4881489 C42.4727789,13.5643875 43.2607275,14.5637369 43.7604097,15.4862271 C44.2600919,16.4087172 44.5868022,17.1774475 44.7405506,17.792441 C44.9711732,18.5611828 45.0480462,19.2530401 44.971172,19.8680336 L30.4420241,34.3971814 L13.721973,51.0019219 L0,54 L2.88276744,40.1627163 L19.6028186,23.5579759 L34.1319664,9.028828 C34.7469599,8.95195382 35.4388172,9.02882685 36.207559,9.25944939 C36.8225525,9.41319776 37.5720645,9.72068988 38.4561176,10.181935 C39.3401707,10.6431801 40.3203018,11.4119104 41.3965404,12.4881489 Z M14.2985265,48.0038437 C14.2216523,47.5425986 14.0679062,47.0044874 13.8372837,46.389494 C13.4529128,45.3132554 12.6073095,44.0448504 11.3004483,42.584241 C10.6085807,41.8923733 9.9359417,41.3350438 9.28251114,40.9122358 C8.62908059,40.4894278 8.03331461,40.201154 7.49519533,40.0474056 C6.88020187,39.8167831 6.34209067,39.7014735 5.88084557,39.7014735 L4.6124279,41.0852019 L3.57463162,45.6976298 C3.95900253,45.9282523 4.3818042,46.1973079 4.84304929,46.5048047 C5.30429439,46.8123014 5.76553257,47.1966665 6.22677766,47.6579116 C7.14926785,48.5804018 7.84112512,49.5028782 8.30237022,50.4253684 L12.9147981,49.3875721 L14.2985265,48.0038437 Z" id="✎" fill="#22A8FA" transform="translate(22.500000, 31.500000) scale(-1, 1) translate(-22.500000, -31.500000) "></path>
            <path d="M14,37.0276745 L14.2064705,37.234145 L21.84375,44.8187536 L21.84375,60.3958543 L60.1562467,60.3958543 L60.1562467,27.8670998 L46.8409913,27.8670998 C45.9874466,27.8670998 45.2619466,27.5706185 44.6644624,26.9776416 C44.0669783,26.3846647 43.7682434,25.6646377 43.7682434,24.8175249 L43.7682434,11.6027239 L21.84375,11.6027239 L21.84375,16.9303613 L14,9.08661125 L14,6.53571075 C14,5.55356475 14.3463507,4.7187555 15.0390625,4.03125 C15.7317738,3.3437445 16.5729115,3 17.5624997,3 L47.8124957,3 C48.8020905,3 49.8906206,3.2455365 51.0781277,3.7366095 C52.2656265,4.2276825 53.2057287,4.8169635 53.8984342,5.50446075 L65.4765578,16.9955393 C66.1692717,17.6830365 66.7630169,18.616062 67.2578101,19.7946405 C67.7526034,20.973219 68,22.0535647 68,23.0357107 L68,65.464286 C68,66.4464336 67.6536514,67.281247 66.9609375,67.96875 C66.2682237,68.6562534 65.4270901,69 64.4374953,69 L17.5624997,69 C16.5729115,69 15.7317738,68.6562534 15.0390625,67.96875 C14.3463507,67.281247 14,66.4464336 14,65.464286 L14,37.0276745 Z M50.0030798,10.0044649 L50.0030798,21.8616054 L61.9500469,21.8616054 C61.7382205,21.2519262 61.5052129,20.8209548 61.2510241,20.5686772 L51.3058028,10.6982319 C51.051614,10.4459543 50.6173778,10.2146986 50.0030798,10.0044649 Z" id="Combined-Shape" fill="#7792B4"></path>
        </g>
    </g>
</svg>

<svg width="72" height="72" viewBox="0 0 72 72" xmlns="http://www.w3.org/2000/svg"><title>edit</title><desc>Created with Sketch.</desc><g fill="none"><path d="M3.603 12.488c-1.076 1.076-1.864 2.076-2.364 2.998-.5.922-.826 1.691-.98 2.306-.231.769-.307 1.461-.231 2.076l14.529 14.529 16.72 16.605 13.722 2.998-2.883-13.837-16.72-16.605-14.529-14.529c-.615-.077-1.307 0-2.076.231-.615.154-1.365.461-2.249.922-.884.461-1.864 1.23-2.94 2.306zm27.098 35.516c.077-.461.231-.999.461-1.614.384-1.076 1.23-2.345 2.537-3.805.692-.692 1.365-1.249 2.018-1.672.653-.423 1.249-.711 1.787-.865.615-.231 1.153-.346 1.614-.346l1.268 1.384 1.038 4.612c-.384.231-.807.5-1.268.807-.461.307-.922.692-1.384 1.153-.922.922-1.614 1.845-2.076 2.767l-4.612-1.038-1.384-1.384z" fill="#22A8FA"/><path d="M14 37.028l.206.206 7.637 7.585v15.577h38.312v-32.529h-13.315c-.854 0-1.579-.296-2.177-.889-.597-.593-.896-1.313-.896-2.16v-13.215h-21.924v5.328l-7.844-7.844v-2.551c0-.982.346-1.817 1.039-2.504.693-.688 1.534-1.031 2.523-1.031h30.25c.99 0 2.078.246 3.266.737 1.187.491 2.128 1.08 2.82 1.768l11.578 11.491c.693.687 1.286 1.621 1.781 2.799.495 1.179.742 2.259.742 3.241v42.429c0 .982-.346 1.817-1.039 2.504-.693.688-1.534 1.031-2.523 1.031h-46.875c-.99 0-1.831-.344-2.523-1.031-.693-.688-1.039-1.522-1.039-2.504v-28.437zm36.003-27.023v11.857h11.947c-.212-.61-.445-1.041-.699-1.293l-9.945-9.87c-.254-.252-.688-.484-1.303-.694z" fill="#7792B4"/></g></svg>
